src/sources/forus-webshop/resources/_webshop-common/assets/img/icon-auth/download-me-app.svg

<svg width="102" height="102" viewBox="0 0 102 102" fill="none" xmlns="http://www.w3.org/2000/svg">
<rect x="1" y="1" width="100" height="100" rx="50" fill="white"/>
<rect x="1" y="1" width="100" height="100" rx="50" stroke="#E5E5E5"/>
<g filter="url(#filter0_d_10_1508)">
<rect x="20" y="31" width="62" height="24" rx="4" fill="#315EFD"/>
<rect x="20" y="31" width="62" height="24" rx="4" stroke="#315EFD" stroke-width="2"/>
<path d="M33.5348 43.0305C33.5348 44.269 33.2345 45.2234 32.6339 45.8934C32.0363 46.5635 31.1948 46.8985 30.1096 46.8985H28V39.4772H30.2567C31.3033 39.4772 32.1106 39.7817 32.6785 40.3909C33.2494 41 33.5348 41.8799 33.5348 43.0305ZM31.7062 43.1015C31.7062 42.4213 31.5873 41.9171 31.3494 41.5888C31.1145 41.2606 30.7563 41.0964 30.2746 41.0964H29.7617V45.2538H30.1542C30.6894 45.2538 31.0818 45.0778 31.3316 44.7259C31.5813 44.3706 31.7062 43.8291 31.7062 43.1015Z" fill="white"/>
<path d="M39.4309 44.0102C39.4309 44.9509 39.2079 45.6853 38.7619 46.2132C38.3189 46.7377 37.6974 47 36.8976 47C36.1305 47 35.5195 46.731 35.0646 46.1929C34.6126 45.6548 34.3867 44.9272 34.3867 44.0102C34.3867 43.0728 34.6082 42.3452 35.0512 41.8274C35.4972 41.3063 36.1216 41.0457 36.9244 41.0457C37.4209 41.0457 37.8595 41.1658 38.2401 41.4061C38.6206 41.6464 38.9135 41.9915 39.1187 42.4416C39.3268 42.8883 39.4309 43.4112 39.4309 44.0102ZM36.1573 44.0102C36.1573 44.5042 36.2152 44.8816 36.3312 45.1421C36.4472 45.3993 36.6419 45.5279 36.9155 45.5279C37.186 45.5279 37.3763 45.3993 37.4863 45.1421C37.5993 44.8816 37.6558 44.5042 37.6558 44.0102C37.6558 43.5195 37.5993 43.1489 37.4863 42.8985C37.3733 42.6481 37.1801 42.5228 36.9065 42.5228C36.6389 42.5228 36.4472 42.6481 36.3312 42.8985C36.2152 43.1455 36.1573 43.5161 36.1573 44.0102Z" fill="white"/>
<path d="M44.7784 46.8985L44.2075 44.1574L44.0737 43.3299L43.9845 42.665H43.9577C43.812 43.6125 43.7139 44.2098 43.6634 44.4569L43.1505 46.8985H41.3174L39.9393 41.1472H41.6564L42.0667 43.3553C42.1975 44.1134 42.2733 44.7428 42.2942 45.2437H42.3209C42.3298 44.9323 42.4116 44.3401 42.5662 43.467L43.0345 41.1472H44.9612L45.3894 43.4975C45.5261 44.2453 45.6124 44.8274 45.6481 45.2437H45.6748C45.6926 44.9865 45.7224 44.6667 45.764 44.2843C45.8056 43.8985 45.8517 43.5888 45.9023 43.3553L46.3483 41.1472H48.0297L46.6426 46.8985H44.7784Z" fill="white"/>
<path d="M51.9321 46.8985V43.7614C51.9321 43.379 51.8831 43.0914 51.785 42.8985C51.6898 42.7022 51.5352 42.6041 51.3211 42.6041C51.0268 42.6041 50.8142 42.7377 50.6833 43.0051C50.5525 43.2724 50.4871 43.731 50.4871 44.3807V46.8985H48.7433V41.1472H50.0589L50.2775 41.8579H50.3801C50.5287 41.5871 50.7339 41.3841 50.9955 41.2487C51.2602 41.1134 51.5634 41.0457 51.9054 41.0457C52.4644 41.0457 52.8985 41.2301 53.2077 41.599C53.5199 41.9679 53.676 42.4873 53.676 43.1574V46.8985H51.9321Z" fill="white"/>
<path d="M56.6062 46.8985H54.8623V39H56.6062V46.8985Z" fill="white"/>
<path d="M62.6405 44.0102C62.6405 44.9509 62.4175 45.6853 61.9715 46.2132C61.5285 46.7377 60.9071 47 60.1072 47C59.3401 47 58.7291 46.731 58.2742 46.1929C57.8222 45.6548 57.5963 44.9272 57.5963 44.0102C57.5963 43.0728 57.8178 42.3452 58.2608 41.8274C58.7068 41.3063 59.3312 41.0457 60.134 41.0457C60.6305 41.0457 61.0691 41.1658 61.4497 41.4061C61.8303 41.6464 62.1231 41.9915 62.3283 42.4416C62.5364 42.8883 62.6405 43.4112 62.6405 44.0102ZM59.3669 44.0102C59.3669 44.5042 59.4249 44.8816 59.5408 45.1421C59.6568 45.3993 59.8515 45.5279 60.1251 45.5279C60.3956 45.5279 60.5859 45.3993 60.6959 45.1421C60.8089 44.8816 60.8654 44.5042 60.8654 44.0102C60.8654 43.5195 60.8089 43.1489 60.6959 42.8985C60.583 42.6481 60.3897 42.5228 60.1162 42.5228C59.8486 42.5228 59.6568 42.6481 59.5408 42.8985C59.4249 43.1455 59.3669 43.5161 59.3669 44.0102Z" fill="white"/>
<path d="M66.9354 46.8985L66.6009 46.1371H66.5653C66.3304 46.4687 66.091 46.6954 65.8472 46.8173C65.6034 46.9391 65.2882 47 64.9017 47C64.426 47 64.0513 46.8376 63.7778 46.5127C63.5042 46.1878 63.3675 45.731 63.3675 45.1421C63.3675 44.5296 63.5548 44.0745 63.9294 43.7766C64.3041 43.4755 64.8467 43.3063 65.5573 43.269L66.4002 43.2386V43.1574C66.4002 42.6836 66.1951 42.4467 65.7848 42.4467C65.4161 42.4467 64.9478 42.5888 64.3799 42.8731L63.8759 41.5635C64.4646 41.2183 65.2079 41.0457 66.1059 41.0457C66.7541 41.0457 67.2551 41.2284 67.6089 41.5939C67.9657 41.9594 68.1441 42.4704 68.1441 43.1269V46.8985H66.9354ZM65.642 45.599C65.8531 45.599 66.033 45.5228 66.1817 45.3706C66.3333 45.2183 66.4092 45.0203 66.4092 44.7766V44.3299L66.0078 44.3503C65.4339 44.3739 65.147 44.6142 65.147 45.0711C65.147 45.423 65.312 45.599 65.642 45.599Z" fill="white"/>
<path d="M70.9003 47C70.5406 47 70.2254 46.8832 69.9548 46.6497C69.6872 46.4162 69.4791 46.0728 69.3304 45.6193C69.1847 45.1658 69.1119 44.6362 69.1119 44.0305C69.1119 43.0964 69.2769 42.3655 69.6069 41.8376C69.937 41.3096 70.3904 41.0457 70.9672 41.0457C71.2497 41.0457 71.4965 41.11 71.7076 41.2386C71.9217 41.3672 72.1164 41.5838 72.2918 41.8883H72.3275C72.271 41.4382 72.2428 40.9882 72.2428 40.5381V39H74V46.8985H72.6843L72.3097 46.1726H72.2428C71.9425 46.7242 71.495 47 70.9003 47ZM71.6139 45.4315C71.8934 45.4315 72.0896 45.3316 72.2026 45.132C72.3186 44.9323 72.381 44.6244 72.39 44.2081V44.0508C72.39 43.5431 72.326 43.1827 72.1982 42.9695C72.0703 42.753 71.8696 42.6447 71.5961 42.6447C71.3671 42.6447 71.1887 42.7682 71.0609 43.0152C70.936 43.2589 70.8736 43.6074 70.8736 44.0609C70.8736 44.5076 70.9375 44.8477 71.0653 45.0812C71.1932 45.3147 71.3761 45.4315 71.6139 45.4315Z" fill="white"/>
</g>
<path d="M63.4884 52.3221L64.6122 49.8095C65.074 48.842 66.2281 48.4242 67.2034 48.8715C68.1782 49.3185 68.6132 50.4644 68.1802 51.4445L67.0447 54.0148C66.3897 55.4976 66.3345 57.1761 66.8909 58.6986L66.9195 58.7769L64.118 55.9785C63.154 55.0158 62.9018 53.5511 63.4884 52.3221Z" fill="#F7D3CA"/>
<path d="M67.2107 58.3174L56.444 47.5638C55.6912 46.8121 54.4708 46.8121 53.7181 47.5638C52.9654 48.3156 52.9654 49.5345 53.7181 50.2862L59.6784 56.2391C58.9221 55.5474 57.7472 55.5669 57.0149 56.2983C56.2622 57.0501 56.2622 58.269 57.0149 59.0207L57.0142 59.0214C56.2615 58.2697 55.041 58.2697 54.2883 59.0214C53.5492 59.7596 53.5364 60.9479 54.2488 61.7024C53.4934 60.9908 52.3037 61.0036 51.5645 61.7418C50.8118 62.4936 50.8118 63.7125 51.5645 64.4642L56.319 69.213C58.7113 71.6023 62.5922 71.5946 64.9751 69.1961L67.2276 66.9288C69.5973 64.5435 69.5898 60.6935 67.2107 58.3174Z" fill="#F9E0DA"/>
<defs>
<filter id="filter0_d_10_1508" x="11" y="26" width="80" height="42" filterUnits="userSpaceOnUse" color-interpolation-filters="sRGB">
<feFlood flood-opacity="0" result="BackgroundImageFix"/>
<feColorMatrix in="SourceAlpha" type="matrix" values="0 0 0 0 0 0 0 0 0 0 0 0 0 0 0 0 0 0 127 0" result="hardAlpha"/>
<feOffset dy="4"/>
<feGaussianBlur stdDeviation="4"/>
<feColorMatrix type="matrix" values="0 0 0 0 0 0 0 0 0 0 0 0 0 0 0 0 0 0 0.06 0"/>
<feBlend mode="normal" in2="BackgroundImageFix" result="effect1_dropShadow_10_1508"/>
<feBlend mode="normal" in="SourceGraphic" in2="effect1_dropShadow_10_1508" result="shape"/>
</filter>
</defs>
</svg>

<svg width="102" height="102" fill="none" xmlns="http://www.w3.org/2000/svg"><rect x="1" y="1" width="100" height="100" rx="50" fill="#fff"/><rect x="1" y="1" width="100" height="100" rx="50" stroke="#E5E5E5"/><g filter="url(#a)"><rect x="20" y="31" width="62" height="24" rx="4" fill="#315EFD"/><rect x="20" y="31" width="62" height="24" rx="4" stroke="#315EFD" stroke-width="2"/><path d="M33.535 43.03c0 1.239-.3 2.193-.901 2.863-.598.67-1.44 1.005-2.524 1.005H28v-7.42h2.257c1.046 0 1.854.304 2.421.913.571.609.857 1.489.857 2.64Zm-1.829.072c0-.68-.119-1.185-.357-1.513-.235-.328-.593-.493-1.074-.493h-.513v4.158h.392c.535 0 .928-.176 1.178-.528.25-.355.374-.897.374-1.624ZM39.43 44.01c0 .94-.222 1.675-.668 2.203-.443.525-1.065.787-1.864.787-.768 0-1.379-.269-1.833-.807-.452-.538-.678-1.266-.678-2.183 0-.937.221-1.665.664-2.183.446-.52 1.07-.781 1.873-.781.497 0 .935.12 1.316.36.38.24.673.586.879 1.036.208.446.312.97.312 1.568Zm-3.273 0c0 .494.058.872.174 1.132.116.257.31.386.584.386.271 0 .461-.129.571-.386.113-.26.17-.638.17-1.132 0-.49-.057-.861-.17-1.111a.59.59 0 0 0-.58-.376c-.267 0-.459.125-.575.375-.116.247-.174.618-.174 1.112ZM44.778 46.898l-.57-2.74-.134-.828-.09-.665h-.026a51.385 51.385 0 0 1-.295 1.792l-.512 2.441h-1.834l-1.378-5.75h1.717l.41 2.207c.131.758.207 1.388.228 1.889h.027c.009-.312.09-.904.245-1.777l.468-2.32h1.927l.428 2.35c.137.748.223 1.33.26 1.747h.026c.018-.258.047-.577.089-.96a9.26 9.26 0 0 1 .138-.929l.446-2.208h1.682L46.643 46.9h-1.865ZM51.932 46.898v-3.137c0-.382-.049-.67-.147-.863a.482.482 0 0 0-.464-.294.663.663 0 0 0-.638.401c-.13.267-.196.726-.196 1.376v2.517h-1.744v-5.75h1.316l.219.71h.102c.149-.27.354-.474.615-.61.265-.135.568-.202.91-.202.56 0 .993.184 1.303.553.312.369.468.888.468 1.558V46.9h-1.744ZM56.606 46.898h-1.744V39h1.744v7.898ZM62.64 44.01c0 .94-.223 1.675-.669 2.203-.442.525-1.064.787-1.864.787-.767 0-1.378-.269-1.833-.807-.452-.538-.678-1.266-.678-2.183 0-.937.222-1.665.665-2.183.446-.52 1.07-.781 1.873-.781.496 0 .935.12 1.316.36.38.24.673.586.878 1.036.208.446.313.97.313 1.568Zm-3.273 0c0 .494.058.872.174 1.132.116.257.31.386.584.386.27 0 .46-.129.57-.386.114-.26.17-.638.17-1.132 0-.49-.056-.861-.17-1.111a.59.59 0 0 0-.579-.376c-.267 0-.46.125-.575.375-.116.247-.174.618-.174 1.112ZM66.935 46.898l-.334-.76h-.036c-.235.33-.474.557-.718.68-.244.121-.559.182-.945.182-.476 0-.85-.162-1.124-.487-.274-.325-.41-.782-.41-1.37 0-.613.187-1.069.561-1.366.375-.302.918-.47 1.628-.508l.843-.03v-.082c0-.473-.205-.71-.615-.71-.369 0-.837.142-1.405.426l-.504-1.31c.589-.345 1.332-.517 2.23-.517.648 0 1.15.182 1.503.548.357.365.535.876.535 1.533v3.771h-1.209ZM65.642 45.6a.727.727 0 0 0 .54-.228.806.806 0 0 0 .227-.594v-.447l-.401.02c-.574.024-.861.264-.861.721 0 .352.165.528.495.528ZM70.9 47c-.36 0-.675-.117-.945-.35-.268-.234-.476-.577-.625-1.03-.145-.454-.218-.984-.218-1.59 0-.934.165-1.665.495-2.192.33-.528.783-.792 1.36-.792.283 0 .53.064.74.193.215.128.41.345.585.65h.035c-.056-.45-.084-.9-.084-1.35V39H74v7.898h-1.316l-.374-.725h-.067c-.3.551-.748.827-1.343.827Zm.714-1.569c.28 0 .476-.1.589-.299.116-.2.178-.508.187-.924v-.157c0-.508-.064-.868-.192-1.082-.128-.216-.328-.324-.602-.324-.229 0-.407.123-.535.37-.125.244-.187.592-.187 1.046 0 .447.064.787.191 1.02.128.234.311.35.549.35Z" fill="#fff"/></g><path d="m63.488 52.322 1.124-2.513a1.964 1.964 0 0 1 2.591-.938 1.96 1.96 0 0 1 .977 2.573l-1.135 2.57a6.267 6.267 0 0 0-.154 4.685l.028.078-2.801-2.799a3.212 3.212 0 0 1-.63-3.656Z" fill="#F7D3CA"/><path d="M67.21 58.317 56.445 47.564a1.93 1.93 0 0 0-2.726 0 1.923 1.923 0 0 0 0 2.722l5.96 5.953a1.93 1.93 0 0 0-2.663.06 1.923 1.923 0 0 0 0 2.722 1.93 1.93 0 0 0-2.727 0 1.923 1.923 0 0 0-.04 2.681 1.929 1.929 0 0 0-2.683.04 1.923 1.923 0 0 0 0 2.722l4.754 4.749a6.114 6.114 0 0 0 8.656-.017l2.253-2.267a6.096 6.096 0 0 0-.017-8.612Z" fill="#F9E0DA"/><defs><filter id="a" x="11" y="26" width="80" height="42" filterUnits="userSpaceOnUse" color-interpolation-filters="sRGB"><feFlood flood-opacity="0" result="BackgroundImageFix"/><feColorMatrix in="SourceAlpha" values="0 0 0 0 0 0 0 0 0 0 0 0 0 0 0 0 0 0 127 0" result="hardAlpha"/><feOffset dy="4"/><feGaussianBlur stdDeviation="4"/><feColorMatrix values="0 0 0 0 0 0 0 0 0 0 0 0 0 0 0 0 0 0 0.06 0"/><feBlend in2="BackgroundImageFix" result="effect1_dropShadow_10_1508"/><feBlend in="SourceGraphic" in2="effect1_dropShadow_10_1508" result="shape"/></filter></defs></svg>
